X:227
T:Indian Springs
C:Fletcher Bright 
N:From the album "Fletcher Bright Fiddle Band" Transcribed by Mike Stangeland
R:bluegrass
L:1/8
Q:1/4=190
M:4/4
K:C
z6 EG |: "Am"Ad BG AG EA | eg ^fg e2 [e7/4d7/4]z/4 | [e2e2] ez/4d3/4 "G"[e2B2] BA | 
"Em"GE zG E2 [A7/4G7/4]z/4 | "Am"[AA]c Bc A2 cd | eg ^fg eg fe | "G"be ae ^fg ed | 
|1 B"Em"c AG "Am"A2 EG :|2 B"Em"c AG "Am"A2 (3e^fg |: "Am"a2 ab ag e^f | ge ^fd e2 g2 | 
aa ae "G"ga ba | "Em"gd ee e2 (3e^fg | "Am"a2 ab ag e^f | ge ^fd e2 a7/4z/4 | 
"G"b2 ae (3gag ed |1 c"Em"A Az "Am"Az eg :|2 c"Em"A Az "Am"Az3 | 


